X: 5
T: The Otter's Holt
R: reel
M: 4/4
L: 1/8
K: Amin
(3Bcd|:eAAG EDEA|G3E GAcd|eAAG EDEG|AcBG A2 (3Bcd|
eAAG EDEA|G3E GAcd|eage decd|1 eAAG A3d:|2 eAAG A3B||
|:c2 ecGc e2|g3e dcAB|c2 ecGc e2|g3e dfed|
c2 ecGc e2|g3e decd|eAAG EDEG|1 AcBG A3B:|2 AcBG A3d||


Tune 636	Setting 13664

